icons/svg/entertainment/ski_resort.svg

<?xml version="1.0" encoding="UTF-8" standalone="no"?>
<!-- Created with Inkscape (http://www.inkscape.org/) -->

<svg
   xmlns:dc="http://purl.org/dc/elements/1.1/"
   xmlns:cc="http://creativecommons.org/ns#"
   xmlns:rdf="http://www.w3.org/1999/02/22-rdf-syntax-ns#"
   xmlns:svg="http://www.w3.org/2000/svg"
   xmlns="http://www.w3.org/2000/svg"
   xmlns:sodipodi="http://sodipodi.sourceforge.net/DTD/sodipodi-0.dtd"
   xmlns:inkscape="http://www.inkscape.org/namespaces/inkscape"
   version="1.0"
   width="580"
   height="580"
   id="svg2"
   sodipodi:version="0.32"
   inkscape:version="0.91 r"
   sodipodi:docname="ski_resort.svg"
   inkscape:output_extension="org.inkscape.output.svg.inkscape">
  <metadata
     id="metadata10">
    <rdf:RDF>
      <cc:Work
         rdf:about="">
        <dc:format>image/svg+xml</dc:format>
        <dc:type
           rdf:resource="http://purl.org/dc/dcmitype/StillImage" />
        <cc:license
           rdf:resource="http://web.resource.org/cc/PublicDomain" />
        <dc:language>en</dc:language>
        <dc:title />
      </cc:Work>
    </rdf:RDF>
  </metadata>
  <sodipodi:namedview
     inkscape:window-height="739"
     inkscape:window-width="1332"
     inkscape:pageshadow="2"
     inkscape:pageopacity="0.0"
     guidetolerance="10.0"
     gridtolerance="10.0"
     objecttolerance="10.0"
     borderopacity="1.0"
     bordercolor="#666666"
     pagecolor="#ffffff"
     id="base"
     showgrid="false"
     inkscape:zoom="0.70710678"
     inkscape:cx="427.87318"
     inkscape:cy="338.92805"
     inkscape:window-x="34"
     inkscape:window-y="1024"
     inkscape:current-layer="svg2"
     inkscape:window-maximized="1" />
  <defs
     id="defs4">
    <inkscape:perspective
       sodipodi:type="inkscape:persp3d"
       inkscape:vp_x="0 : 290 : 1"
       inkscape:vp_y="0 : 1000 : 0"
       inkscape:vp_z="580 : 290 : 1"
       inkscape:persp3d-origin="290 : 193.33333 : 1"
       id="perspective12" />
  </defs>
  <g
     id="g1327">
    <path
       d="M 66.275,1.768 C 24.94,1.768 1.704,23.139 1.704,66.804 L 1.704,516.927 C 1.704,557.771 22.598,579.156 63.896,579.156 L 515.92,579.156 C 557.227,579.156 578.149,558.84 578.149,516.927 L 578.149,66.804 C 578.149,24.203 557.227,1.768 514.627,1.768 C 514.624,1.768 66.133,1.625 66.275,1.768 z"
       style="fill:#111111;stroke:#eeeeee;stroke-width:3.40799999"
       id="path1329" />
  </g>
  <path
     style="font-style:normal;font-variant:normal;font-weight:normal;font-stretch:normal;font-size:40px;line-height:125%;font-family:NPSPICT3;-inkscape-font-specification:NPSPICT3;text-align:start;writing-mode:lr-tb;text-anchor:start;fill:#ffffff;fill-opacity:1;stroke:none"
     d="m 143.46571,511.41313 c 1.82752,6.19767 6.29394,11.99731 12.2423,13.66162 2.84037,0.79439 6.02837,1.00902 8.9966,0.13828 l 338.3278,-103.47652 6.83795,23.50168 -337.24269,102.47018 c -9.6746,2.56002 -11.92471,1.1887 -21.72345,-1.25798 -10.08259,-2.82103 -23.31414,-16.52485 -26.39032,-26.76902 l 18.95133,-8.26988 z"
     id="flowRoot3192"
     inkscape:connector-curvature="0"
     sodipodi:nodetypes="cccccccccc" />
  <path
     style="fill:#ffffff"
     inkscape:connector-curvature="0"
     id="path99"
     d="m 234.76307,166.70473 c -7.841,3.698 -14.499,8.482 -20.367,14.548 -5.918,5.967 -11.589,10.8 -14.546,21.551 -3.108,10.701 -4.145,24.657 -3.503,42.459 l -73.283,0 c 2.516,9.321 6.904,16.422 13.364,22.094 6.363,5.523 14.253,9.271 25.004,11.047 10.651,1.726 27.518,1.528 38.418,-1.184 10.849,-2.959 19.379,-8.384 26.135,-16.274 l 34.323,30.229 c -14.201,14.302 -24.409,26.335 -31.364,37.232 -7.051,10.654 -12.329,16.029 -9.911,26.779 2.465,10.552 9.715,19.727 24.41,36.641 14.598,17.014 62.237,63.961 62.237,63.961 15.25168,-7.74647 33.91988,-10.57699 49.553,-17.501 -11.74053,-13.13108 -27.8349,-27.612 -42.552,-43.552 -14.3,-15.979 -22.979,-27.419 -26.778,-35.456 -3.746,-7.941 2.418,-8.481 4.636,-11.689 2.023,-3.154 1.578,-1.429 8.188,-7.545 6.656,-6.608 23.967,-21.501 31.412,-30.229 7.2,-8.729 12.527,-12.87 12.182,-20.959 -0.444,-8.187 3.772,-5.113 -5.549,-15.321 l 68.37829,0.70711 c -0.99886,13.40714 3.0915,21.09304 9.30948,21.40671 6.66051,-0.0459 8.89912,-10.10682 10.92992,-22.15559 l 37.23199,-8.99274 -37.31059,-10.51049 c -1.12607,-17.96479 -0.28526,-21.84575 -9.51045,-22.01866 -7.73813,-0.14504 -9.57053,8.6067 -10.45796,20.24366 l -89.20768,-0.592 c -16.814,-20.121 -31.658,-36.986 -45.32,-51.188 -13.662,-14.301 -25.548,-25.347 -36.052,-33.731 z"
     sodipodi:nodetypes="cccccccccccccccccccccccccccscccc" />
  <path
     style="fill:#ffffff"
     inkscape:connector-curvature="0"
     id="path101"
     d="m 172.43407,101.92373 c 20.39,0 36.938,16.548 36.938,36.937 0,20.39 -16.548,36.938 -36.938,36.938 -20.389,0 -36.937,-16.548 -36.937,-36.938 0,-20.389 16.549,-36.937 36.937,-36.937" />
  <path
     style="fill:#ffffff"
     inkscape:connector-curvature="0"
     id="path103"
     d="m 251.90812,131.99031 c 4.447,-3.789 14.771,-14.553 31.678,-33.435999 16.846,-18.942999 39.388,-44.861999 68.578,-78.898999 19.101,30.369 33.157,52.499 43.541,66.871999 10.146,14.312999 15.78,20.386999 17.145,18.701999 10.799,-10.823999 19.874,-20.024999 27.705,-28.082998 7.714,-8.059 13.701,-14.733 18.447,-20.025 23.729,33.435999 43.424,60.977998 60.689,84.250998 16.968,23.093 30.434,40.592 40.873,53.462 l -76.103,-47.197 c -5.34,15.516 -2.56,10.333 -14.899,11.115 -12.577,0.481 -31.913,-16.959 -47.461,-20.086 -15.598,-3.187 -31.025,6.615 -44.905,1.323 -14.001,-5.653 -15.477,-14.103 -28.704,-19.874 -13.349,-5.653 -17.194,-10.153 -35.934,-8.5 -20.864,2.417 -45.229,11.896 -60.65,20.375 z"
     sodipodi:nodetypes="cccccccccccccccc" />
</svg>

<svg width="580" height="580" viewBox="0 0 580 580" fill="none" xmlns="http://www.w3.org/2000/svg">
<g clip-path="url(#clip0)">
<path d="M66.275 1.76802C24.94 1.76802 1.70399 23.139 1.70399 66.804V516.927C1.70399 557.771 22.598 579.156 63.896 579.156H515.92C557.227 579.156 578.149 558.84 578.149 516.927V66.804C578.149 24.203 557.227 1.76802 514.627 1.76802C514.624 1.76802 66.133 1.62502 66.275 1.76802Z" fill="#111111" stroke="#EEEEEE" stroke-width="3.408"/>
<path d="M143.466 511.413C145.293 517.611 149.76 523.411 155.708 525.075C158.548 525.869 161.736 526.084 164.705 525.213L503.032 421.737L509.87 445.238L172.628 547.708C162.953 550.268 160.703 548.897 150.904 546.45C140.822 543.629 127.59 529.926 124.514 519.681L143.465 511.412L143.466 511.413Z" fill="white"/>
<path d="M234.763 166.705C226.922 170.403 220.264 175.187 214.396 181.253C208.478 187.22 202.807 192.053 199.85 202.804C196.742 213.505 195.705 227.461 196.347 245.263H123.064C125.58 254.584 129.968 261.685 136.428 267.357C142.791 272.88 150.681 276.628 161.432 278.404C172.083 280.13 188.95 279.932 199.85 277.22C210.699 274.261 219.229 268.836 225.985 260.946L260.308 291.175C246.107 305.477 235.899 317.51 228.944 328.407C221.893 339.061 216.615 344.436 219.033 355.186C221.498 365.738 228.748 374.913 243.443 391.827C258.041 408.841 305.68 455.788 305.68 455.788C320.932 448.041 339.6 445.211 355.233 438.287C343.493 425.156 327.398 410.675 312.681 394.735C298.381 378.756 289.702 367.316 285.903 359.279C282.157 351.338 288.321 350.798 290.539 347.59C292.562 344.436 292.117 346.161 298.727 340.045C305.383 333.437 322.694 318.544 330.139 309.816C337.339 301.087 342.666 296.946 342.321 288.857C341.877 280.67 346.093 283.744 336.772 273.536L405.15 274.243C404.152 287.65 408.242 295.336 414.46 295.65C421.12 295.604 423.359 285.543 425.39 273.494L462.622 264.501L425.311 253.991C424.185 236.026 425.026 232.145 415.801 231.972C408.063 231.827 406.23 240.579 405.343 252.216L316.135 251.624C299.321 231.503 284.477 214.638 270.815 200.436C257.153 186.135 245.267 175.089 234.763 166.705V166.705Z" fill="white"/>
<path d="M172.434 101.924C192.824 101.924 209.372 118.472 209.372 138.861C209.372 159.251 192.824 175.799 172.434 175.799C152.045 175.799 135.497 159.251 135.497 138.861C135.497 118.472 152.046 101.924 172.434 101.924" fill="white"/>
<path d="M251.908 131.99C256.355 128.201 266.679 117.437 283.586 98.5543C300.432 79.6113 322.974 53.6923 352.164 19.6553C371.265 50.0243 385.321 72.1543 395.705 86.5273C405.851 100.84 411.485 106.914 412.85 105.229C423.649 94.4053 432.724 85.2043 440.555 77.1463C448.269 69.0873 454.256 62.4133 459.002 57.1213C482.731 90.5573 502.426 118.099 519.691 141.372C536.659 164.465 550.125 181.964 560.564 194.834L484.461 147.637C479.121 163.153 481.901 157.97 469.562 158.752C456.985 159.233 437.649 141.793 422.101 138.666C406.503 135.479 391.076 145.281 377.196 139.989C363.195 134.336 361.719 125.886 348.492 120.115C335.143 114.462 331.298 109.962 312.558 111.615C291.694 114.032 267.329 123.511 251.908 131.99V131.99Z" fill="white"/>
</g>
<defs>
<clipPath id="clip0">
<path d="M0 0H580V580H0V0Z" fill="white"/>
</clipPath>
</defs>
</svg>
